docs/public/favicon.svg

<svg width="512" height="512" viewBox="0 0 512 512" fill="none" xmlns="http://www.w3.org/2000/svg">
<path fill-rule="evenodd" clip-rule="evenodd" d="M137.587 19L170.676 19V43V67L162.659 67C153.154 80.6205 143.611 94.2128 134.567 107.095C123.791 122.444 113.722 136.786 105.268 148.966H174.129V358.824H261.36C274.615 358.824 285.36 369.57 285.36 382.824C285.36 396.079 274.615 406.824 261.36 406.824H126.129V196.966L81.1811 196.966C79.075 196.967 75.8923 196.967 72.7259 196.745C69.7396 196.535 64.6616 196.019 59.5546 194.029C54.4749 192.051 44.5506 186.542 41.6858 173.873C39.1686 162.742 44.0799 153.728 46.8962 149.425C56.4659 134.804 75.238 108.064 96.1195 78.3184C107.313 62.3734 119.113 45.565 130.426 29.2974L137.587 19ZM75.1859 148.769C75.1859 148.769 75.2118 148.773 75.2596 148.782C75.2091 148.774 75.1859 148.769 75.1859 148.769ZM390.637 288.702C395.832 284.753 401.529 279.769 407.207 273.584C425.907 253.213 443.353 220.892 443.353 172.966C443.353 86.3891 384.109 19 319.932 19L170.677 19C170.677 19 170.676 19 170.676 43C170.676 67 170.677 67 170.677 67L319.932 67C349.754 67 395.353 104.306 395.353 172.966C395.353 208.074 382.973 229.004 371.847 241.124C366.102 247.382 360.406 251.584 356.296 254.154C354.25 255.433 352.634 256.285 351.655 256.768C351.167 257.008 350.843 257.154 350.709 257.213L350.706 257.214L326.987 266.545L338.024 289.768L359.701 279.466C338.024 289.768 338.025 289.769 338.025 289.769L338.026 289.772L338.597 290.974C338.974 291.769 339.533 292.945 340.256 294.469C341.701 297.516 343.804 301.952 346.43 307.502C351.683 318.601 359.029 334.151 367.402 351.955C380.714 380.261 396.595 414.207 410.778 445H334.242C334.242 445 334.242 445 334.242 469L334.242 445C320.987 445 310.242 455.745 310.242 469C310.242 482.255 320.987 493 334.242 493V469C334.242 493 334.242 493 334.242 493H435.622C446.424 493 457.652 488.153 463.884 477.292C469.504 467.499 468.84 456.528 465.054 448.218C448.542 411.98 427.614 367.198 410.838 331.528C402.873 314.59 395.835 299.688 390.637 288.702Z" fill="#DB2777"/>
</svg>

<svg width="512" height="512" fill="none" xmlns="http://www.w3.org/2000/svg"><path fill-rule="evenodd" clip-rule="evenodd" d="M137.587 19h33.089v48h-8.017c-9.505 13.62-19.048 27.213-28.092 40.095-10.776 15.349-20.845 29.691-29.299 41.871h68.861v209.858h87.231c13.255 0 24 10.746 24 24 0 13.255-10.745 24-24 24H126.129V196.966H81.181c-2.106.001-5.289.001-8.455-.221-2.986-.21-8.064-.726-13.171-2.716-5.08-1.978-15.004-7.487-17.87-20.156-2.516-11.131 2.395-20.145 5.211-24.448 9.57-14.621 28.342-41.361 49.224-71.107 11.193-15.945 22.993-32.753 34.306-49.02L137.587 19ZM75.186 148.769l.074.013-.074-.013Zm315.451 139.933a126.21 126.21 0 0 0 16.57-15.118c18.7-20.371 36.146-52.692 36.146-100.618C443.353 86.389 384.109 19 319.932 19H170.677l-.001 24 .001 24h149.255c29.822 0 75.421 37.306 75.421 105.966 0 35.108-12.38 56.038-23.506 68.158-5.745 6.258-11.441 10.46-15.551 13.03a53.767 53.767 0 0 1-4.641 2.614c-.488.24-.812.386-.946.445l-.003.001-23.719 9.331 11.037 23.223 21.677-10.302c-21.677 10.302-21.676 10.303-21.676 10.303l.001.003.571 1.202 1.659 3.495a20311.76 20311.76 0 0 1 27.146 57.486c13.312 28.306 29.193 62.252 43.376 93.045h-76.536v24-24c-13.255 0-24 10.745-24 24s10.745 24 24 24v-24 24h101.38c10.802 0 22.03-4.847 28.262-15.708 5.62-9.793 4.956-20.764 1.17-29.074-16.512-36.238-37.44-81.02-54.216-116.69a20155.946 20155.946 0 0 0-20.201-42.826Z" fill="#DB2777"/></svg>
